X: 42
T: Allegretto
C: Armand Aromin
H: 4//05
M: 4/4
L: 1/8
R: 
K: Gmaj
(3def || g2 GA BAGF | g2 GA BAGF | GABd cBAG | F2 A2 A2 (3def |
g2 GA BAGF | g2 GA BAGF | GABd cBAG |1 A2 d2 G2 (3def |2 A2 d2 G2  z2 :|
F3 G A2 GF | GFGA B2 AG | A3 B c2 BA | B3 c d2 cB |
F3 G A2 GF | GFGA B2 AG | A3 B c2 BA | G2 B2 G2 z2 :|
